X: 43173
T: Winyadepla
R: polka
M: 2/4
K: Amajor
ce/A/ cc/A/|cA/A/ F>A|ce/A/ cc/A/|c/d/e/c/ B>B:|
c/A/ (3A/A/A/ f/a/e/a/|f/a/e/d/ c/A/ (3A/A/A/|c/A/ (3A/A/A/ f/a/e/a/|f/a/e/c/ B>B|
c/A/ (3A/A/A/ f/a/e/a/|f/a/e/d/ c/A/ (3A/A/A/|f/g/b/g/ a/f/e/c/|{A}B2 B>A||

